www/assets/icons/remember_me.svg

<svg width="24" height="24" viewBox="0 0 24 24" xmlns="http://www.w3.org/2000/svg" fill='currentColor'><path d="M17 1H7C5.9 1 5 1.9 5 3V21C5 22.1 5.9 23 7 23H17C18.1 23 19 22.1 19 21V3C19 1.9 18.1 1 17 1ZM17 15.21C15.5 14.44 13.8 14 12 14C10.2 14 8.5 14.44 7 15.21V6H17V15.21Z"/><path d="M12 13C13.6569 13 15 11.6569 15 10C15 8.34315 13.6569 7 12 7C10.3431 7 9 8.34315 9 10C9 11.6569 10.3431 13 12 13Z"/></svg>

<svg xmlns="http://www.w3.org/2000/svg" width="24" height="24" viewBox="0 0 24 24" fill='currentColor'><path d="M17 1H7c-1.1 0-2 .9-2 2v18c0 1.1.9 2 2 2h10c1.1 0 2-.9 2-2V3c0-1.1-.9-2-2-2m0 14.21c-1.5-.77-3.2-1.21-5-1.21s-3.5.44-5 1.21V6h10z"/><path d="M12 13a3 3 0 1 0 0-6 3 3 0 0 0 0 6"/></svg>
